X:1
T:Standin In The Need of Prayer
T:Grace
T:Copyright 1881 by The Riverside Press Arr from P.P. Bliss
T:Rodeheaver's Plantation Melodies
C:Arr. from P.P. Bliss
Z:Rodeheaver's Plantation Melodies
%%score [ 1 2 3 4 ]
L:1/8
M:4/4
K:F
V:1 treble nm="Soprano" snm="S."
V:2 treble nm="Alto" snm="A."
V:3 bass nm="Tenor" snm="T."
V:4 bass nm="Bass" snm="B."
V:1
 F2 F2 F2 F2 | G2 G2 G4 | A2 c2 B2 A2 | G2 F2 G4 | F2 F2 F2 F2 | G2 G2 G4 | A2 c2 B2 A2 | %7
 G2 G2 F4 || F4 F4 |] %9
V:2
 F2 F2 F2 F2 | E2 E2 E4 | F2 A2 G2 F2 | C2 D2 E4 | D2 D2 D2 D2 | E2 E2 E4 | F2 F2 F2 F2 | %7
w: Thou art great, and|Thou art good.|And we thank Thee|for this food.|By Thy hand must|all be fed,|give us Lord or|
 F2 E2 F4 || D4 C4 |] %9
w: dai- ly bread.|A- men.|
V:3
 A,2 A,2 A,2 A,2 | C2 C2 C4 | C2 C2 C2 C2 | C2 B,2 C4 | A,2 A,2 A,2 A,2 | C2 C2 C4 | %6
 C2 A,2 D2 [F,C]2 | C2 CB, A,4 || B,4 A,4 |] %9
V:4
 F,2 F,2 F,2 F,2 | C,2 C,2 C,4 | F,2 F,2 E,2 F,2 | E,2 D,2 C,4 | D,2 D,2 D,2 D,2 | C,2 C,2 C,4 | %6
"_2." F,2 F,2 B,,2 F,,2 | C,2 C,2 F,4 || B,,4 F,4 |] %9

